svgs/sharp-thin/memory.svg

<svg xmlns="http://www.w3.org/2000/svg" viewBox="0 0 576 512"><!--! Font Awesome Pro 6.6.0 by @fontawesome - https://fontawesome.com License - https://fontawesome.com/license (Commercial License) Copyright 2024 Fonticons, Inc. --><path d="M0 64L0 80l0 66.7c18.6 6.6 32 24.4 32 45.3s-13.4 38.7-32 45.3L0 432l0 16 16 0 80 0 16 0 112 0 16 0 96 0 16 0 112 0 16 0 80 0 16 0 0-16 0-194.7c-18.6-6.6-32-24.4-32-45.3s13.4-38.7 32-45.3L576 80l0-16-16 0L16 64 0 64zM112 400l0-8-16 0 0 8 0 32-80 0 0-96 544 0 0 96-80 0 0-32 0-8-16 0 0 8 0 32-112 0 0-32 0-8-16 0 0 8 0 32-96 0 0-32 0-8-16 0 0 8 0 32-112 0 0-32zM48 192c0-23.7-12.9-44.4-32-55.4L16 80l544 0 0 56.6c-19.1 11.1-32 31.7-32 55.4s12.9 44.4 32 55.4l0 72.6L16 320l0-72.6c19.1-11.1 32-31.7 32-55.4zm144-64l-16 0-32 0-16 0 0 16 0 16 0 64 0 16 0 16 16 0 32 0 16 0 0-16 0-16 0-64 0-16 0-16zm-48 32l0-16 32 0 0 16 0 64 0 16-32 0 0-16 0-64zm176-32l-16 0-32 0-16 0 0 16 0 16 0 64 0 16 0 16 16 0 32 0 16 0 0-16 0-16 0-64 0-16 0-16zm-48 32l0-16 32 0 0 16 0 64 0 16-32 0 0-16 0-64zm176-32l-16 0-32 0-16 0 0 16 0 16 0 64 0 16 0 16 16 0 32 0 16 0 0-16 0-16 0-64 0-16 0-16zm-48 32l0-16 32 0 0 16 0 64 0 16-32 0 0-16 0-64z"/></svg>

<svg xmlns="http://www.w3.org/2000/svg" viewBox="0 0 576 512"><!--! Font Awesome Pro 6.5.2 by @fontawesome - https://fontawesome.com License - https://fontawesome.com/license (Commercial License) Copyright 2024 Fonticons, Inc. --><path d="M0 64V80v66.7c18.6 6.6 32 24.4 32 45.3s-13.4 38.7-32 45.3V432v16H16 96h16H224h16 96 16H464h16 80 16V432 237.3c-18.6-6.6-32-24.4-32-45.3s13.4-38.7 32-45.3V80 64H560 16 0zM112 400v-8H96v8 32H16V336H560v96H480V400v-8H464v8 32H352V400v-8H336v8 32H240V400v-8H224v8 32H112V400zM48 192c0-23.7-12.9-44.4-32-55.4V80H560v56.6c-19.1 11.1-32 31.7-32 55.4s12.9 44.4 32 55.4V320H16V247.4c19.1-11.1 32-31.7 32-55.4zm144-64H176 144 128v16 16 64 16 16h16 32 16V240 224 160 144 128zm-48 32V144h32v16 64 16H144V224 160zm176-32H304 272 256v16 16 64 16 16h16 32 16V240 224 160 144 128zm-48 32V144h32v16 64 16H272V224 160zm176-32H432 400 384v16 16 64 16 16h16 32 16V240 224 160 144 128zm-48 32V144h32v16 64 16H400V224 160z"/></svg>
